tools/download-figma-icons/icons/outlined-large/error.svg

<svg width="64" height="64" viewBox="0 0 64 64" fill="none" xmlns="http://www.w3.org/2000/svg">
<path fill-rule="evenodd" clip-rule="evenodd" d="M61 42.4502C61 44.9592 58.959 47.0002 56.449 47.0002H25.393C25.062 47.0002 24.74 47.1092 24.479 47.3102L13.881 55.4552V48.5002C13.881 47.6722 13.209 47.0002 12.381 47.0002H7.56C5.046 47.0002 3 44.9592 3 42.4502V11.5602C3 9.04624 5.046 7.00024 7.56 7.00024H56.449C58.959 7.00024 61 9.04624 61 11.5602V42.4502ZM56.449 4.00024H7.56C3.392 4.00024 0 7.39124 0 11.5602V42.4502C0 46.6132 3.392 50.0002 7.56 50.0002H10.881V58.5002C10.881 59.0712 11.205 59.5932 11.718 59.8462C11.928 59.9492 12.155 60.0002 12.381 60.0002C12.705 60.0002 13.027 59.8942 13.295 59.6892L25.902 50.0002H56.449C60.612 50.0002 64 46.6132 64 42.4502V11.5602C64 7.39124 60.612 4.00024 56.449 4.00024ZM33.4444 35.0117C33.8094 35.3937 34.0324 35.9017 34.0324 36.4407C34.0324 37.0437 33.8094 37.4887 33.4444 37.8687C33.0634 38.3137 32.5404 38.4727 32.0164 38.4727C31.4134 38.4727 30.8894 38.2497 30.5074 37.8687C30.2074 37.4887 29.9844 37.0437 29.9844 36.4407C29.9844 35.9017 30.2074 35.3937 30.5884 35.0117C31.3344 34.2657 32.6824 34.2657 33.4444 35.0117ZM34.0322 28.1714V17.5044C34.0322 16.3774 33.1432 15.4724 32.0002 15.4724C30.8732 15.4724 29.9692 16.3774 29.9692 17.5044V28.1714C29.9692 29.2974 30.8732 30.2024 32.0002 30.2024C33.1432 30.2024 34.0322 29.2974 34.0322 28.1714Z" fill="black"/>
</svg>

<svg xmlns="http://www.w3.org/2000/svg" width="64" height="64" fill="none" viewBox="0 0 64 64"><path fill="currentColor" fill-rule="evenodd" d="M61 42.45A4.555 4.555 0 0 1 56.449 47H25.393c-.331 0-.653.11-.914.31l-10.598 8.145V48.5a1.5 1.5 0 0 0-1.5-1.5H7.56A4.56 4.56 0 0 1 3 42.45V11.56A4.566 4.566 0 0 1 7.56 7h48.889A4.56 4.56 0 0 1 61 11.56zM56.449 4H7.56C3.392 4 0 7.391 0 11.56v30.89C0 46.613 3.392 50 7.56 50h3.321v8.5a1.5 1.5 0 0 0 2.414 1.19L25.902 50h30.547C60.612 50 64 46.613 64 42.45V11.56C64 7.391 60.612 4 56.449 4M33.444 35.012c.365.382.588.89.588 1.429 0 .603-.223 1.048-.588 1.428-.38.445-.904.604-1.428.604a2.1 2.1 0 0 1-1.509-.604c-.3-.38-.523-.825-.523-1.428 0-.54.223-1.047.604-1.43.746-.745 2.094-.745 2.856 0m.588-6.84V17.503A2.016 2.016 0 0 0 32 15.472a2.025 2.025 0 0 0-2.03 2.032v10.667c0 1.126.903 2.031 2.03 2.031a2.016 2.016 0 0 0 2.032-2.03" clip-rule="evenodd"/></svg>
